!!!!SEGMENT: pl-wtm--r-92-n--001_noskowski-zygmunt--bajki-ptaszki-w-klatce.krn
!!!cenid: 18xx:2132
!!!COM: Noskowski, Zygmunt
!!!COM-rismID: pe106604
!!!CDT: 1846/05/02-1909/07/23
!!!CNT: Polish
!!!GTL: Bajki
!!!OTL: Ptaszki w klatce
!!!PDT: 1875
!!!AGN: Secular
!!!SMS-siglum: PL-Wtm
!!!SMS-shelfmark: R 92/N
!!!SMS-shelfwork: 001 G
!!!SMS-variant:
!!!SMS-altvar:
!!!NIFC-rismSourceID: 1001084150
!!!NIFC-rismChildID: 1001084150
!!!NIFC-islandoraID:
!!!URL-pdf-islandora:
!!!URL-scan:
!!!ONB-nifc:
!!!OMD: Molto Moderato
!!!OMD-mod: Molto moderato
!!!AIN: 1 piano 1 vox
!!!key:
**kern	**fing	**kern	**dynam	**kern	**text	**mod-text	**dynam
*part2	*part2	*part2	*part2	*part1	*part1	*part1	*part1
*staff3	*staff3	*staff2	*	*staff1	*staff1	*staff1	*
*Ipiano	*	*Ipiano	*	*Ivox	*	*	*
*I"[Pianoforte]	*	*I"[Pianoforte]	*	*I"[Voce]	*	*	*
*mI"Pianoforte	*	*mI"Pianoforte	*	*mI"Voce	*	*	*
*I'[pf]	*	*I'[pf]	*	*I'[V]	*	*	*
*mI'pf	*	*mI'pf	*	*mI'V	*	*	*
*clefF4	*	*clefG2	*	*clefG2	*	*	*
*k[b-]	*	*k[b-]	*	*k[b-]	*	*	*
*d:	*	*d:	*	*d:	*	*	*
*M3/4	*	*M3/4	*	*M3/4	*	*	*
=1	=1	=1	=1	=1	=1	=1	=1
*2\right	*	*2\right	*	*	*	*	*
!!LO:TX:t=P:problem:all\right:global
!	!	!LO:TX:a:Bi:t=Molto Moderato:mod= 	!	!	!	!	!
16r	.	16r	.	2.r	.	.	.
*clefG2	*	*	*	*	*	*	*
(>16a\LL	.	(>16aa\LL	p	.	.	.	.
16b-\	.	16bb-\	.	.	.	.	.
16dd\JJ	.	16ddd\JJ	.	.	.	.	.
!	!	!LO:SIC:s=16ccc#X\LL:v	!	!	!	!	!
16cc#X\LL	.	&(>16ccc#X\LL	.	.	.	.	.
!	!	!LO:SIC:s=16ggg\J):v	!	!	!	!	!
16gg\J)	.	16ggg\J&))	.	.	.	.	.
8gg'>\J	.	8ggg'>\J	.	.	.	.	.
4r	.	4r	.	.	.	.	.
=2	=2	=2	=2	=2	=2	=2	=2
16r	.	16r	.	2.r	.	.	.
(>16a\LL	.	(>16aa\LL	.	.	.	.	.
16b-\	.	16bb-\	.	.	.	.	.
16dd\JJ	.	16ddd\JJ	.	.	.	.	.
16cc#X\LL	.	16ccc#X\LL	.	.	.	.	.
16gg\J)	.	16ggg\J)	.	.	.	.	.
8gg'>\J	.	8ggg'>\J	.	.	.	.	.
4r	.	4r	.	.	.	.	.
=3	=3	=3	=3	=3	=3	=3	=3
16r	.	16r	.	2.r	.	.	.
(>16gg\LL	.	(>16ggg\LL	.	.	.	.	.
16ff\	.	16fff\	.	.	.	.	.
16cc#X\JJ	.	16ccc#X\JJ	.	.	.	.	.
16dd\LL	.	16ddd\LL	.	.	.	.	.
16ee\	.	16eee\	.	.	.	.	.
16ff\	.	16fff\	.	.	.	.	.
16dd\JJ	.	16ddd\JJ	.	.	.	.	.
16cc#\LL	.	16ccc#\LL	.	.	.	.	.
16b-\J	.	16bb-\J	.	.	.	.	.
8ff\J)	.	8fff\J)	.	.	.	.	.
=4	=4	=4	=4	=4	=4	=4	=4
16r	.	16r	.	2.r	.	.	.
(>16ff\LL	.	(>16fff\LL	.	.	.	.	.
16ee\	.	16eee\	.	.	.	.	.
16dd\JJ	.	16ddd\JJ	.	.	.	.	.
16cc#X\LL	.	16ccc#X\LL	.	.	.	.	.
16dd\	.	16ddd\	.	.	.	.	.
16ee\	.	16eee\	.	.	.	.	.
16b-\JJ	.	16bb-\JJ	.	.	.	.	.
16a\LL	.	16aa\LL	.	.	.	.	.
16g\	.	16gg\	.	.	.	.	.
16ee\JJ)	.	16eee\JJ)	.	.	.	.	.
16r;>	.	16r;>	.	.	.	.	.
!!LO:LB:g=original
=5	=5	=5	=5	=5	=5	=5	=5
!	!	!LO:TX:t=P:problem=niekompletny takt [w źródle sklejony fragment]	!	!	!	!	!
!	!	!LO:MO:mod=!LO&colon;TX&colon;a&colon;Bi&colon;t=Accel.	!	!	!	!	!
!	!	!LO:TX:b:Bi:t=acce[lerando]	!	!	!	!	!
8r	.	(>16aa\LL	<	2.r	.	.	.
.	.	16gg\J)	.	.	.	.	.
8dd 8b-'>\	.	8eee'>\J	.	.	.	.	.
8r	.	(>16gg\LL	.	.	.	.	.
.	.	16eee\J)	.	.	.	.	.
8dd 8b-'>\	.	8eee'>\J	.	.	.	.	.
8r	.	(>16ee\LL	.	.	.	.	.
.	.	16bb-\J)	.	.	.	.	.
8dd 8g'>\	.	8bb-'>\J	[	.	.	.	.
=6	=6	=6	=6	=6	=6	=6	=6
*	*	*	*	*2\right	*	*	*
!	!	!	!	!LO:TX:a:t=P:problem=w źródle dynamika, artykulacja oraz oddechy dopisane ołówkiem [nieuwzględnione w kodzie]	!	!	!
8r	.	(>16ee\LL	.	2r	.	.	.
.	.	16gg\J)	.	.	.	.	.
8dd 8b-\	.	8gg'>\J	.	.	.	.	.
8r	.	(>16ee\LL	.	.	.	.	.
.	.	16gg\J)	.	.	.	.	.
8cc#X 8a\	.	8gg'>\J	.	.	.	.	.
!	!	!	!	!LO:MO:mod=!LO&colon;TX&colon;a&colon;Bi&colon;t=Ad libitum	!	!	!
!	!	!	!	!LO:TX:a:Bi:t=ad libitum	!	!	!
!	!	!	!	!	!	!	!LO:DY:b:rj
4r	.	(>16cc#X\LL	>	8.cc#X\	Cze-	Cze-	p
.	.	16gg\	.	.	.	.	.
.	.	16ee\	.	.	.	.	.
.	.	16dd\JJ)	]]	16dd\	-go	-góż	.
*clefF4	*	*	*	*	*	*	*
=7	=7	=7	=7	=7	=7	=7	=7
!	!	!LO:MO:mod=!LO&colon;TX&colon;a&colon;Bi&colon;t=Colla parte	!	!	!	!	!
!	!	!LO:TX:b:Bi:t=colla parte	!	!	!	!	!
4A\	.	4cc#X 4g 4e/	.	(>2ee\	pła-	pła-	.
4r	.	4r	.	.	.	.	.
4r	.	4r	.	4g/)	.	.	.
=8	=8	=8	=8	=8	=8	=8	=8
!LO:TX:t=P:problem=niekompletny takt [w źródle sklejony fragment]	!	!	!	!	!	!	!
!	!	!LO:MO:mod=!LO&colon;TX&colon;a&colon;Bi&colon;t=In tempo	!	!LO:MO:mod=!LO&colon;TX&colon;a&colon;Bi&colon;t=In tempo	!	!	!
!	!	!LO:TX:a:Bi:t=in tempo	!	!LO:TX:a:Bi:t=in tempo	!	!	!
4E\	.	8r	.	4.b-/	-czesz?	-czesz?	.
!	!	!LO:TX:t=P:problem=chorągiewka poprawiona na belkę	!	!	!	!	!
.	.	8gL 8d 8B-/	.	.	.	.	.
4ryy	.	8g 8e 8B-/	.	.	.	.	.
.	.	8g 8e 8B-/	.	8b-/	Sta-	Sta-	.
4ryy	.	8a 8e 8A/	.	8a/	-re-	-re-	.
.	.	8gJ 8e 8A/	.	8g/	-mu	-mu	.
=9	=9	=9	=9	=9	=9	=9	=9
!LO:TX:t=P:problem=niekompletny takt [w źródle sklejony fragment]	!	!LO:TX:t=P:problem=niekompletny takt [w źródle sklejony fragment]	!	!	!	!	!
8D\L	.	8fL 8d 8A/	.	8f/	mó-	mó-	.
8E\J	.	8e 8c#X 8A/	.	8e/	-wił	-wił	.
4F\	.	8d 8A/	.	(>4.d/	czy-	czy-	.
.	.	8d 8A/	.	.	.	.	.
4FF/	.	8d 8A/	.	.	.	.	.
.	.	8aJ 8d 8A/	.	8a/)	-żyk	-żyk	.
=10	=10	=10	=10	=10	=10	=10	=10
!	!	!LO:TX:t=P:problem=niekompletny takt [w źródle sklejony fragment]	!	!	!	!	!
2.EE/	.	8r	.	4a/	mło-	mło-	.
.	.	8aL 8d 8Bn/	.	.	.	.	.
.	.	8g#X 8d 8B/	.	8g#X/	-dy,	-dy:	.
.	.	8g# 8d 8B/	.	8r	.	.	.
.	.	8bn 8g# 8d/	.	8r	.	.	.
.	.	8bJ 8g# 8d/	.	8bn\	Masz	Masz	.
!!LO:LB:g=original
=11	=11	=11	=11	=11	=11	=11	=11
2E\	.	8r	.	4.cc#X\	te-	te-	.
.	.	8cc#XL 8a 8e/	.	.	.	.	.
.	.	8cc# 8a 8e/	.	.	.	.	.
.	.	8ddJ 8a 8e/	.	8dd\	-raz	-raz	.
4D\	.	8bnL 8g#X 8e/	.	8bn\	le-	le-	.
.	.	8bJ 8g# 8e/	.	(>16cc#\LL	-psze	-psze	.
.	.	.	.	16dd\JJ)	.	.	.
=12	=12	=12	=12	=12	=12	=12	=12
2.C#X/	.	8r	.	(>4.ee\	w klat-	w klat-	.
.	.	8aL 8e/	.	.	.	.	.
.	.	8a 8e/	.	.	.	.	.
.	.	8aJ 8e/	.	8ff#X\)	.	.	.
.	.	8eeL 8a 8e/	.	8ee\	-ce,	-ce,	.
.	.	8eeJ 8a 8e/	.	8r	.	.	.
=13	=13	=13	=13	=13	=13	=13	=13
2BBn/	.	8r	.	8r	.	.	.
.	.	8eeL 8a 8fn/	<	8ee\	niż	niż	.
.	.	8dd 8a 8f/	.	4dd\	w po-	w po-	.
.	.	8ddJ 8a 8f/	.	.	.	.	.
4EE/	.	8ee:L 8cc#X: 8g#X: 8e:/	.	8.cc#X\	-lu	-lu	.
.	.	8ee:J 8bn: 8g#: 8d:/	[[	.	.	.	.
.	.	.	.	16bn\	wy-	wy-	.
=14	=14	=14	=14	=14	=14	=14	=14
*	*	*^	*	*	*	*	*
(<[>2.AA/	.	8r	8ryy	.	4cc#X\	-go-	-go-	.
.	.	8ee^>:/	8a:L 8c#X:\	.	.	.	.	.
.	.	4dd^>/	8a 8fn\	.	[>2a/	-dy.	-dy.	.
.	.	.	8a 8f\	>	.	.	.	.
.	.	8cc#X/L	8a 8e\	.	.	.	.	.
.	.	8bn/J	8aJ 8d\	.	.	.	.	.
=15	=15	=15	=15	=15	=15	=15	=15	=15
2AA_> [<2AAA/)	.	4cc#X/	8r	.	8a/]	.	.	.
.	.	.	8aL 8e\	.	8r	.	.	.
.	.	[>4a/	8e 8c#X\	.	4r	.	.	.
.	.	.	8eJ 8c#\	.	.	.	.	.
8AA] 8AAA;>/]	.	8a;>/]	8e 8c#\	]	4r;>	.	.	.
8r;>	.	8r;>	8ryy	.	.	.	.	.
*	*	*v	*v	*	*	*	*	*
!!LO:LB:g=original
=16	=16	=16	=16	=16	=16	=16	=16
4r	.	16r	.	2.r	.	.	.
.	.	(<16a/LL	f	.	.	.	.
.	.	16b-/	.	.	.	.	.
.	.	16a/JJ	.	.	.	.	.
4r	.	16g/LL	.	.	.	.	.
.	.	16f/	.	.	.	.	.
.	.	16e/	.	.	.	.	.
.	.	16g/JJ	.	.	.	.	.
8r	.	8b-'</L)	.	.	.	.	.
8AA\	.	8c#XJ 8G< 8E<'>/	.	.	.	.	.
=17	=17	=17	=17	=17	=17	=17	=17
!	!	!	!	!LO:MO:mod=!LO&colon;TX&colon;a&colon;Bi&colon;t=Con sentimento	!	!	!
!	!	!	!	!LO:TX:a:Bi:t=con sentimento	!	!	!
!	!	!	!	!	!	!	!LO:DY:b:rj
2DD/	.	8r	mf	2d/	Tyś	Tyś	f
.	.	8dL 8A< 8F</	.	.	.	.	.
.	.	8d 8A< 8F</	.	.	.	.	.
.	.	8dJ 8A< 8F</	.	.	.	.	.
4rGG	.	8eL 8d 8B-< 8G</	.	4e/	w niéj	w niej	.
.	.	8eJ 8d 8B-< 8G</	.	.	.	.	.
=18	=18	=18	=18	=18	=18	=18	=18
*^	*	*	*	*	*	*	*
*	*2\left	*	*	*	*	*	*	*
(>2E^>/	[<2.D^>\	.	8r	.	(<4.g/	zro-	zro-	.
.	.	.	8gL 8d 8B-/	.	.	.	.	.
.	.	.	8g 8d 8B-/	.	.	.	.	.
.	.	.	8gJ 8d 8B-/	.	8a/)	.	.	.
8F/L	.	.	8fL 8d 8A/	.	8d/	-dzon,	-dzon,	.
8G/J	.	.	8eJ 8d 8B-/	.	8b-/	rzekł	rzekł	.
*	*2\right	*	*	*	*	*	*	*
=19	=19	=19	=19	=19	=19	=19	=19	=19
*	*	*	*^	*	*	*	*	*
2F/)	2D\]	.	8r	2ryyyy	.	(<8.a/L	sta-	sta-	.
.	.	.	8fL 8d 8A/	.	.	.	.	.	.
.	.	.	.	.	.	32cc/LL	.	.	.
.	.	.	.	.	.	32b-/JJJ)	.	.	.
.	.	.	8a 8f 8d 8A/	.	.	8a/	-ry,	-ry,	.
.	.	.	8aJ 8f 8d 8A/	.	.	8r	.	.	.
4E\	4ryyyy	.	4a^>/	8r	<	4r	.	.	.
.	.	.	.	8g 8c#X 8A\	.	.	.	.	.
*v	*v	*	*	*	*	*	*	*	*
=20	=20	=20	=20	=20	=20	=20	=20	=20
2D/	.	(>8.a/L	8r	.	2.r	.	.	.
.	.	.	8f 8d\	[	.	.	.	.
.	.	32ccn/LL	.	>	.	.	.	.
.	.	32b-/JJJ	.	.	.	.	.	.
.	.	4.a/)	8r	.	.	.	.	.
.	.	.	8fL 8d\	.	.	.	.	.
4C/	.	.	8e 8A\	]	.	.	.	.
.	.	8a/	8eJ 8A\	.	.	.	.	.
!!LO:LB:g=original
=21	=21	=21	=21	=21	=21	=21	=21	=21
4BBn/	.	2g#X^>/	8r	.	(>2g#X/	Tys	tyś	.
.	.	.	8eL 8d\	.	.	.	.	.
(>[<2EE/	.	.	8e 8d\	.	.	.	.	.
.	.	.	8eJ 8d\	.	.	.	.	.
.	.	8g#/L	8eL 8d\	.	4dd\)	w niej	w niej	.
.	.	8g#/J	8eJ 8d\	.	.	.	.	.
*	*	*v	*v	*	*	*	*	*
=22	=22	=22	=22	=22	=22	=22	=22
2.E 2.EE/])	.	8r	.	4dd\	zro-	zro-	.
.	.	8aL 8e 8c/	<	.	.	.	.
.	.	8a 8e 8c/	.	[>4cc\	-dzon,	-dzon,	.
.	.	8a 8e 8c/	.	.	.	.	.
.	.	8cc 8a 8e/	.	8cc\]	.	.	.
.	.	8ccJ 8a 8e/	[[	8r	.	.	.
=23	=23	=23	=23	=23	=23	=23	=23
!	!	!	!	!LO:MO:mod=!LO&colon;TX&colon;a&colon;Bi&colon;t=Espressivo	!	!	!
!	!	!	!	!LO:TX:a:Bi:t=espressivo	!	!	!
2.D 2.DD/	.	8r	.	4.cc\	prze-	prze-	.
!	!	!LO:MO:mod=!LO&colon;TX&colon;a&colon;Bi&colon;t=Sostenuto	!	!	!	!	!
!	!	!LO:TX:b:Bi:t=sostenuto	!	!	!	!	!
!	!	!LO:SIC:s=8ccL 8f 8Bn/^:v	!	!	!	!	!
.	.	8ccL 8f 8Bn/	.	.	.	.	.
.	.	8cc 8f 8B^>/	.	.	.	.	.
!	!	!	!	!LO:MO:mod=!LO&colon;TX&colon;a&colon;Bi&colon;t=Sostenuto	!	!	!
!	!	!	!	!LO:TX:b:Bi:t=sostenuto	!	!	!
.	.	8bn 8f 8B^>/	.	8bn^>\	-to	-to	.
.	.	8a 8f 8B^>/	.	8a^>/	ci	ci	.
.	.	8gnJ 8e 8B^>/	.	8gn^>/	wy-	wy-	.
=24	=24	=24	=24	=24	=24	=24	=24
2D 2DD/	.	8r	.	(<2f/	-ba-	-ba-	.
.	.	8fL 8e 8A/	.	.	.	.	.
.	.	8f 8d 8A/	.	.	.	.	.
.	.	8fJ 8d 8A/	.	.	.	.	.
4BBn 4BBBn/	.	8aL 8d 8A/	.	8a/L	.	.	.
.	.	8fJ 8d 8A/	.	8f/J)	.	.	.
=25	=25	=25	=25	=25	=25	=25	=25
*	*	*^	*	*	*	*	*
2.EE/	.	(>2e^>/	8r	p	4e/	-czę;	-czę.	.
.	.	.	8dL 8G#X\	.	.	.	.	.
.	.	.	8d 8G#\	.	4r	.	.	.
.	.	.	8d 8G#\	.	.	.	.	.
.	.	4f/	8d 8A\	.	4r	.	.	.
.	.	.	8dJ 8A\	.	.	.	.	.
=26	=26	=26	=26	=26	=26	=26	=26	=26
2.E\	.	4.a/	8r	.	2.r	.	.	.
.	.	.	8dL 8Bn\	.	.	.	.	.
.	.	.	8d 8B\	.	.	.	.	.
.	.	8bn/	8d 8B\	.	.	.	.	.
.	.	4g#X/)	8d 8B\	.	.	.	.	.
.	.	.	8dJ 8B\	.	.	.	.	.
*	*	*v	*v	*	*	*	*	*
!!LO:PB:g=original
=27	=27	=27	=27	=27	=27	=27	=27
[>2.F\	.	8r	.	2g#X/	Jam	Jam	.
.	.	8g#XL 8d 8Bn/	.	.	.	.	.
.	.	8g# 8d 8B/	.	.	.	.	.
!	!	!LO:MO:mod=!null:null	!	!	!	!	!
!	!	!LO:TX:b:Bi:t=cres_cen_do:problem=dynamics with extention lines	!	!	!	!	!
!	!	!	!LO:HP:b:Bi:t=cres_cen_do:ext=ud	!	!	!	!
.	.	8g# 8d 8B/	<	.	.	.	.
!	!	!	!	!LO:MO:mod=!null:null	!	!	!
!	!	!	!	!LO:TX:a:Bi:t=cres_cen_do:problem=dynamics with extention lines	!	!	!
!	!	!	!	!	!	!	!LO:HP:a:Bi:t=cres_cen_do:ext=ud
.	.	8a 8c 8A/	.	4a/	był	był	<
.	.	8aJ 8c 8A/	.	.	.	.	.
=28	=28	=28	=28	=28	=28	=28	=28
2.F] 2.FF/	.	8r	.	(>2cc\	wol-	wol-	.
.	.	8ccL 8a 8e-X/	.	.	.	.	.
.	.	8cc 8a 8e-/	.	.	.	.	.
.	.	8cc 8a 8e-/	.	.	.	.	.
.	.	8b-X 8g 8e-/	.	8b-X\L	.	.	.
.	.	8ccJ 8a 8e-/	.	8cc\J)	.	.	.
=29	=29	=29	=29	=29	=29	=29	=29
*^	*	*	*	*	*	*	*
8.F/L	2.BB-\	.	8r	.	4dd\	-ny,	-ny,	.
.	.	.	4dd 4b- 4d/	.	.	.	.	.
16G/Jk	.	.	.	.	.	.	.	.
4A-X/	.	.	.	.	4r	.	.	.
.	.	.	4dd 4b- 4d/	.	.	.	.	.
4A-/	.	.	.	.	8.dd\	jam	jam	.
.	.	.	8dd 8b- 8d/	[	.	.	.	.
.	.	.	.	.	16dd\	był	był	[
=30	=30	=30	=30	=30	=30	=30	=30	=30
8A-X/L	2.BB-\	.	8r	.	(>8.dd\L	wol-	wol-	.
8F/	.	.	4dd 4b- 4d/	.	.	.	.	.
.	.	.	.	.	16cc#X\Jk)	.	.	.
8B-/	.	.	.	.	8dd\	-ny,	-ny,	.
8A-/	.	.	4dd 4b- 4d/	.	8r	.	.	.
8G/	.	.	.	.	8r	.	.	.
!	!	!	!	!	!	!	!	!LO:DY:a
8F/J	.	.	8dd 8b- 8d/	.	8dd\	dziś	dziś	f
=31	=31	=31	=31	=31	=31	=31	=31	=31
!	!	!	!LO:MO:mod=!LO&colon;TX&colon;a&colon;Bi&colon;t=Largamente	!	!LO:MO:mod=!LO&colon;TX&colon;a&colon;Bi&colon;t=Largamente	!	!	!
!	!	!	!LO:TX:a:Bi:t=largamente	!	!LO:TX:a:Bi:t=largamente	!	!	!
8.F/L	2.AA\	.	8r	f	(>[>2ff\	w klat-	w klat-	.
.	.	.	4dd 4f 4d/	.	.	.	.	.
16G/Jk	.	.	.	.	.	.	.	.
4An/	.	.	.	.	.	.	.	.
.	.	.	4dd 4f 4d/	.	.	.	.	.
4A/	.	.	.	.	8ff\L]	.	.	.
.	.	.	8a 8f 8d/	.	8ee\J)	.	.	.
=32	=32	=32	=32	=32	=32	=32	=32	=32
8A/L	2.AA\	.	8r	.	[>4dd\	-ce,	-ce,	.
8F/	.	.	4a 4f 4d/	>	.	.	.	.
8B-/	.	.	.	.	8dd\]	.	.	.
8A/	.	.	4a 4f 4d/	.	8r	.	.	.
8G/	.	.	.	.	8r	.	.	.
8F/J	.	.	8a 8f 8d/	.	8a/	dziś	dziś	.
!!LO:LB:g=original
=33	=33	=33	=33	=33	=33	=33	=33	=33
!	!	!	!	!	!	!	!	!LO:DY:b:rj
8.E/L	2.GG\	.	8r	mf	(>4.b-\	w klat-	w klat-	mf
.	.	.	4b- 4g 4d/	>	.	.	.	.
16F/Jk	.	.	.	.	.	.	.	.
4G/	.	.	.	.	.	.	.	.
.	.	.	4b- 4e 4d/	.	8cc\)	.	.	.
4G/	.	.	.	.	8dd\	-ce,	-ce,	.
.	.	.	8b- 8e 8d/	]	8r	.	.	.
=34	=34	=34	=34	=34	=34	=34	=34	=34
8.E/L	2.EE\	1	8r	p	4r	.	.	.
.	.	.	4b- 4g 4d/	.	.	.	.	.
16F/Jk	.	1	.	.	.	.	.	.
!	!	!	!	!	!	!	!	!LO:DY:b:rj
4G/	.	.	.	.	8cc^>\	i	i	p
.	.	.	4b- 4g 4d/	.	8b-^>\	dla-	dla-	.
4E/	.	.	.	.	8a^>/	-te-	-te-	.
.	.	.	8b- 8g 8d/	.	8g^>/	-go	-go	.
=35	=35	=35	=35	=35	=35	=35	=35	=35
8.D/L	2.AA\	.	8r	.	(>8.f/L	pła-	pła-	.
.	.	.	4a 4d 4A/	>	.	.	.	.
16E/Jk	.	.	.	.	16g/Jk	.	.	.
!	!	!	!	!	!	!	!	!LO:HP:b
4F/	.	.	.	.	2a/	.	.	>
.	.	.	4a 4d 4A/	.	.	.	.	.
4F/	.	.	.	.	.	.	.	.
.	.	.	8a 8d 8A/	.	.	.	.	.
*v	*v	*	*	*	*	*	*	*
=36	=36	=36	=36	=36	=36	=36	=36
!	!	!	!	!LO:MO:mod=!LO&colon;TX&colon;a&colon;Bi&colon;t=Sostenuto	!	!	!
!	!	!	!	!LO:TX:a:Bi:t=sostenuto	!	!	!
2.E 2.AA\	.	8r	.	2g#X/	.	.	.
!	!	!LO:MO:mod=!LO&colon;TX&colon;a&colon;Bi&colon;t=Sostenuto	!	!	!	!	!
!	!	!LO:TX:a:Bi:t=sostenuto	!	!	!	!	!
.	.	4g#X 4d 4G#X/	.	.	.	.	.
.	.	4g# 4d 4G#/	.	.	.	.	.
.	.	.	.	4dd\)	.	.	.
.	.	8g# 8d 8G#/	.	.	.	.	]]
=37	=37	=37	=37	=37	=37	=37	=37
4E 4AA/	.	4gn 4c#X 4Gn/	]	[>4cc#X\	-czę.	-czę.	.
*clefG2	*	*	*	*	*	*	*
16r	.	16r	.	8cc#\]	.	.	.
(>16a\LL	.	(>16aa\LL	p	.	.	.	.
16b-\	.	16bb-\	.	8r	.	.	.
16dd\JJ	.	16ddd\JJ	.	.	.	.	.
16cc#X\LL	.	16ccc#X\LL	.	4r	.	.	.
16gg\J)	.	16ggg\J)	.	.	.	.	.
8gg'>\J	.	8ggg'>\J	.	.	.	.	.
=38	=38	=38	=38	=38	=38	=38	=38
!LO:TX:t=P:problem=niekompletny takt, skreślony ołówkiem [w źródle sklejony fragment]	!	!LO:TX:t=P:problem=niekompletny takt, skreślony ołówkiem [w źródle sklejony fragment]	!	!	!	!	!
16r	.	16r	.	2.r	.	.	.
(>16a\LL	.	(>16aa\LL	p	.	.	.	.
16b-\	.	16bb-\	.	.	.	.	.
16dd\JJ	.	16ddd\JJ	.	.	.	.	.
16cc#X\LL	.	16ccc#X\LL	.	.	.	.	.
16gg\J)	.	16ggg\J)	.	.	.	.	.
8gg'>\J	.	8ggg'>\J	.	.	.	.	.
4r	.	4r	.	.	.	.	.
!!LO:LB:g=original
=39	=39	=39	=39	=39	=39	=39	=39
16r	.	16r	.	2.r	.	.	.
(>16gg\LL	.	(>16ggg\LL	.	.	.	.	.
16ff\	.	16fff\	.	.	.	.	.
16cc#X\JJ	.	16ccc#X\JJ	.	.	.	.	.
16dd\LL	.	16ddd\LL	.	.	.	.	.
16ee\	.	16eee\	.	.	.	.	.
16ff\	.	16fff\	.	.	.	.	.
16dd\JJ	.	16ddd\JJ	.	.	.	.	.
16cc#\LL	.	16ccc#\LL	.	.	.	.	.
16b-\	.	16bb-\	.	.	.	.	.
16ff\JJ)	.	16fff\JJ)	.	.	.	.	.
16r	.	16r	.	.	.	.	.
=40	=40	=40	=40	=40	=40	=40	=40
16r	.	16r	.	2.r	.	.	.
(>16ff\LL	.	(>16fff\LL	.	.	.	.	.
16ee\	.	16eee\	.	.	.	.	.
16dd\JJ	.	16ddd\JJ	.	.	.	.	.
16cc#X\LL	.	16ccc#X\LL	.	.	.	.	.
16dd\	.	16ddd\	.	.	.	.	.
16ee\	.	16eee\	.	.	.	.	.
16b-\JJ	.	16bb-\JJ	.	.	.	.	.
8a/)	.	16aa\LL	.	.	.	.	.
.	.	16ff\	.	.	.	.	.
8r	.	16ddd\	.	.	.	.	.
.	.	16bb-\JJ)	.	.	.	.	.
*clefF4	*	*	*	*	*	*	*
=41	=41	=41	=41	=41	=41	=41	=41
.	.	[<4qqa/	pp	.	.	.	.
[<4qqA/	.	[<4qqdd/	.	.	.	.	.
[>4f 4A\_<	.	[>4aa 4dd_> 4a\_<	.	4r	.	.	.
8f] 8A\]	.	8aa] 8dd] 8a\]	.	8r	.	.	.
!	!	!	!	!	!	!	!LO:DY:b:rj
8r	.	8r	.	8dd\	dla-	Dla-	p
4r	.	4r	.	8a/	-te-	-te-	.
.	.	.	.	8b-/	-go	-go	.
=42	=42	=42	=42	=42	=42	=42	=42
!	!	!LO:MO:mod=!LO&colon;TX&colon;a&colon;Bi&colon;t=Rallent.	!	!	!	!	!
!	!	!LO:TX:a:Bi:t=rallent	!	!	!	!	!
!	!	!	!LO:DY:b:rj	!	!	!	!
!	!	!	!	!LO:MO:mod=!LO&colon;TX&colon;a&colon;Bi&colon;t=Rallent.	!	!	!
!	!	!	!	!null	!	!	!
[<2AA [<2AAA\	.	[>2c#X< [>2G< [<2E</	pp	(>8b-/	pła-	pła-	.
.	.	.	.	4d#X/	.	.	.
!	!	!	!	!LO:MO:mod=!null:null	!	!	!
!	!	!	!	!LO:TX:b:Bi:t=rallent	!	!	!
.	.	.	.	8e/	.	.	.
8AA] 8AAA;<\]	.	8c#<] 8G<] 8E<;>/]	.	8a;>/L	.	.	.
8r	.	8r	.	16g/L	.	.	.
.	.	.	.	16e/JJ)	.	.	.
!!LO:LB:g=original
=43	=43	=43	=43	=43	=43	=43	=43
*^	*	*	*	*	*	*	*
!	!	!	!	!LO:DY:b:rj	!	!	!	!
8r	2.DD\	.	2d^>/	f	[<4d/	-czę.	-czę.	.
8AL 8F/	.	.	.	.	.	.	.	.
!	!	!	!LO:MO:mod=!null:null	!	!	!	!	!
!	!	!	!LO:TX:a:Bi:t=il canto marcato	!	!	!	!	!
8A 8F/	.	.	.	.	8d/]	.	.	.
8AJ 8F/	.	.	.	.	8r	.	.	.
!	!	!	!LO:MO:mod=!LO&colon;TX&colon;a&colon;Bi&colon;t=Il canto marcato	!	!	!	!	!
!	!	!	!null	!	!	!	!	!
8dL 8B- 8G/	.	.	4e/	.	4r	.	.	.
8dJ 8B- 8G/	.	.	.	.	.	.	.	.
=44	=44	=44	=44	=44	=44	=44	=44	=44
*	*	*	*^	*	*	*	*	*
2E^>/	2.D\	.	4.g/	8r	.	2.r	.	.	.
.	.	.	.	8dL 8B-\	.	.	.	.	.
.	.	.	.	8d 8B-\	.	.	.	.	.
.	.	.	8a/L	8d 8B-\	.	.	.	.	.
8F/L	.	.	8d/	8A\	.	.	.	.	.
8G/J	.	.	8b-/J	8dJ 8B-\	.	.	.	.	.
=45	=45	=45	=45	=45	=45	=45	=45	=45	=45
8r	[<2D\	.	8.a/L	8r	>	2.r	.	.	.
8AL 8F/	.	.	.	8d\L	.	.	.	.	.
.	.	.	32cc/LL	.	.	.	.	.	.
.	.	.	32b-/JJJ	.	.	.	.	.	.
8A 8F/	.	.	[>4a/	8d\	.	.	.	.	.
8A 8F/	.	.	.	8d\	.	.	.	.	.
8AJ 8F/	8D\]	.	8a/]	8d\J	.	.	.	.	.
8r	8ryy	.	8r	8ryy	.	.	.	.	.
*v	*v	*	*	*	*	*	*	*	*
*	*	*v	*v	*	*	*	*	*
=46	=46	=46	=46	=46	=46	=46	=46
*clefG2	*	*	*	*	*	*	*
16r	.	16r	.	2.ryy	.	.	.
(>16a\LL	.	16aa\LL	p	.	.	.	.
16cc#X\	.	16ccc#X\	.	.	.	.	.
16dd\JJ)	.	16ddd\JJ	.	.	.	.	.
(>16dd\LL	.	(>16ddd\LL	.	.	.	.	.
16aa\J)	.	16aaa\J)	.	.	.	.	.
8aa'>\J	.	8aaa'>\J	.	.	.	.	.
4r	.	4r	.	.	.	.	.
=47	=47	=47	=47	=47	=47	=47	=47
(<16d/LL	.	(>16dd\LL	pp	2.r	.	.	.
16a/J)	.	16aa\J)	.	.	.	.	.
8a'</J	.	8aa'\>J	.	.	.	.	.
4r	.	4r	.	.	.	.	.
*clefF4	*	*	*	*	*	*	*
!	!	!	!LO:DY:b:rj	!	!	!	!
8GG#X 8DD\	.	8f 8B-< 8F<'</	pp	.	.	.	.
8r	.	8r	.	.	.	.	.
=48	=48	=48	=48	=48	=48	=48	=48
[>2AA [<2DD\	.	[<2d [>2A< [<2F</	.	2.r	.	.	.
8AA] 8DD\]	.	8d] 8A<] 8F</]	.	.	.	.	.
8r	.	8r	.	.	.	.	.
==	==	==	==	==	==	==	==
*-	*-	*-	*-	*-	*-	*-	*-
!!!system-decoration: {s1(s2,s3)}
!!!system-decoration-mod: (s1){(s2,s3)}
!!!RDF**kern: > = above
!!!RDF**kern: < = below
!!LO:MO:ori
!!!RDF**dynam: > = "diminuendo", fontstyle= "bold-italic"
!!!RDF**dynam: < = "crescendo", fontstyle= "bold-italic"
!!LO:MO:end
!!!RDF**kern: | = vertical stroke
!!!RDF**kern: N = linked
!!!RDF**kern: i = editorial accidental
!!!filter-modern: sic -sq | shed -e "s/LO:DY:(a|b|rj)/LO:dy:$1/L" | shed -e "s/TX(.*):t=P:/tx$1:t=P:/LG" | modori -m | autostem -r | shed -e "s/yy//" | shed -k -e "s/\(y([^y])/($1/" | shed -e "s/-//B" | shed -e "s/^(\d+[\/\\]right)/$1yy/I; s/^(\d+[\/\\]left)/$1yy/I" | shed -k -e "s/[<>]//g" | shed -k -e "s/r[a-gA-G]+/r/D"
!!!ENC: Katarzyna Serwa
!!!END: 2021-05-15
!!!EED: Wojciech Jakubiak-Danek
!!!EEV: 2021-06-05
!!!EED-modern: Antoni Szymański
!!!END-modern: 2022-08-22
!!!YEC: Copyright 2022 Narodowy Instytut Fryderyka Chopina (https://polishscores.org)
!!!YEM: License CC-BY-4.0 (https://creativecommons.org/licenses/by/4.0)
